X: 124
T: Chalk and Cheese (reel)
N: 030089
C: BB
N: revised 1/6/07
Q: 380
M: 4/4
L: 1/8
K: C
(3G,A,B,|"C"C2 EC "Dm"DEFA|"D"^FAdA "G"G2 AB|"C"c2 Bc "Am"AGGE|"Dm7"FDEC "G"DGGD|
"C"C2 EC "Dm"DEFA| "D"^FAdA "G"G2 AB|"C"cE (3EDE "F"FAcA|"G"GEDB, "C"C2 :|
zD|"C"EGAB cege|"D"d^faf "G"g2 g=f|"C"ecBc "Am"acBc|"Dm"efdc "G"BGAB |
"C"c2 ec gcec|"Am"ag^fa "G"g2 g=f|"C"eccB "Dm"ADFA|"G"GEDB, "C"C2 :|
%%%%%%%%%%%%%%%%%%%%%%%%%%%%%%%%%%%%%%%%%%%
